source/images/brand.svg

<svg xmlns="http://www.w3.org/2000/svg" viewBox="1.5 374.4 592.7 94.5" enable-background="new 1.5 374.4 592.7 94.5"><title>Untitled 3</title><path d="M39.6 434l-11.4-19.9h-17V434H1.5v-59.6h30c5.5 0 10.1 2 14 5.9s5.9 8.5 5.9 14c0 4.2-1.3 7.8-3.6 11.4-2.3 3.3-5.2 5.5-8.8 7.2l12.4 21.5H39.6v-.4zm-8.5-50.5H11.2v19.9h19.9c2.6 0 4.9-1 6.8-2.9 2-2 2.9-4.2 2.9-7.2 0-2.6-1-4.9-2.9-6.8-1.6-2-3.9-3-6.8-3zm74.3 39.4H78L72.8 433H61.7l30-59.6 29.6 59.6h-11.1l-4.8-10.1zm-22.5-9.7h17.6l-8.8-17.6-8.8 17.6zm72.3-39.8c4.2 0 8.1.7 11.7 2.3s6.8 3.6 9.4 6.5l-7.2 7.2c-3.9-3.9-8.5-5.9-14-5.9s-10.1 2-14 5.9c-3.9 3.9-5.9 8.5-5.9 14s2 10.1 5.9 14c3.9 3.9 8.8 5.9 14 5.9 2.9 0 5.9-.7 8.1-1.6 2.3-1 4.9-2.9 6.5-4.9v-8.1h-15v-9.8h25.4V420c-1.3 2-2.9 3.9-4.9 5.5s-3.9 2.9-5.9 4.2c-2.3 1.3-4.2 2-6.8 2.6-2.6.7-4.9.7-7.5.7-8.1 0-15.3-2.9-21.2-8.8-5.9-5.9-8.8-12.7-8.8-21.2 0-8.1 2.9-15.3 8.8-21.2 6.5-5.5 13.3-8.4 21.4-8.4zm42.4 0l39.8 35.8v-35.8h10.1V433l-40.1-35.8V433h-9.8v-59.6zm107.2 49.5h-27.4l-5.2 10.1h-11.1l30-59.6 29.6 59.6h-11.1l-4.8-10.1zm-22.5-9.7h17.6l-8.8-17.6-8.8 17.6zm90.9 19.8l-11.4-19.9h-16.9V433h-9.8v-59.6h30c5.5 0 10.1 2 14 5.9 3.9 3.9 5.9 8.5 5.9 14 0 4.2-1.3 7.8-3.6 11.4-2.3 3.3-5.2 5.5-8.8 7.2l12.4 21.5h-11.7v-.4zm-8.5-49.5h-19.9v19.9h19.9c2.6 0 4.9-1 6.8-2.9 2-2 2.9-4.2 2.9-7.2 0-2.6-1-4.9-2.9-6.8-1.9-2-4.1-3-6.8-3zm54.5 24.8c-4.9 0-8.8-1.6-12.4-5.2s-5.2-7.5-5.2-12.4 1.6-8.8 5.2-12.1c3.3-3.6 7.5-5.2 12.4-5.2h32.3v10.1h-32.3c-1 0-2 .3-2.9.7-1 .3-1.6 1-2.3 1.6-.7.7-1.3 1.6-1.6 2.3-.3.7-.7 1.6-.7 2.6 0 2 .7 3.9 2.3 5.2 1.3 1.6 3.3 2.3 5.2 2.3h15c4.9 0 8.8 1.6 12.4 5.2 3.6 3.3 5.2 7.5 5.2 12.4s-1.6 8.8-5.2 12.4c-3.3 3.3-7.5 5.2-12.4 5.2h-32.3v-10.1h32.3c1 0 2-.3 2.9-.7 1-.3 1.6-1 2.3-1.6.7-.7 1.3-1.3 1.6-2.3.3-1 .7-2 .7-2.9 0-2-.7-3.9-2.3-5.2-1.3-1.6-3.3-2.3-5.2-2.3h-15zm75.9-34.9c8.1 0 15.3 2.9 21.2 8.8 5.9 5.9 8.8 12.7 8.8 21.2 0 8.1-2.9 15.3-8.8 21.2-5.9 5.9-12.7 8.8-21.2 8.8-8.1 0-15.3-2.9-21.2-8.8-5.9-5.9-8.8-12.7-8.8-21.2 0-8.1 2.9-15.3 8.8-21.2 5.9-5.9 13-8.8 21.2-8.8zm0 10.1c-5.5 0-10.1 2-14 5.9s-5.9 8.5-5.9 14 2 10.1 5.9 14 8.8 5.9 14 5.9c5.5 0 10.1-2 14-5.9 3.9-3.9 5.9-8.8 5.9-14 0-5.2-2-10.1-5.9-14-3.9-3.9-8.5-5.9-14-5.9zm47.2-10.1l39.8 35.8v-35.8h10.1V433l-40.1-35.8V433h-9.8v-59.6z"/><path d="M5.7 461.4v6.8H2.1v-20.5h10.4c2 0 3.6.7 4.9 2 1.3 1.3 2 2.9 2 4.9 0 2-.7 3.6-2 4.9-1.3 1.3-2.9 2-4.9 2 0-.1-6.8-.1-6.8-.1zm0-10.4v6.8h6.8c1 0 1.6-.3 2.3-1 .7-.7 1-1.6 1-2.3 0-1-.3-1.6-1-2.6-.7-.7-1.6-1-2.3-1 0 .1-6.8.1-6.8.1zM47.4 447.7v3.6H37v5.2h10.4v3.6H37v5.2h10.4v3.6H33.7v-20.5h13.7v-.7zM75.7 468.2l-3.9-6.8H66v6.8h-3.6v-20.5h10.4c2 0 3.6.7 4.9 2 1.3 1.3 2 2.9 2 4.9 0 1.3-.3 2.6-1.3 3.9-.7 1.3-2 2-2.9 2.6l4.2 7.5h-3.9v-.4zM72.8 451H66v6.8h6.8c1 0 1.6-.3 2.3-1 .7-.7 1-1.6 1-2.6s-.3-1.6-1-2.3c-.7-.6-1.3-.9-2.3-.9zM108 447.7v3.6H97.6v6.8H108v3.6H97.6v6.8H94V448h14v-.3zM137.6 447.7v3.6h-10.4v5.2h10.4v3.6h-10.4v5.2h10.4v3.6H124v-20.5h13.7v-.7zM162.4 447.7c1.3 0 2.6.3 3.9.7 1.3.7 2.3 1.3 3.3 2.3l-2.3 2.6c-1.3-1.3-2.9-2-4.9-2-1 0-2 .3-2.6.7-1 .3-1.6 1-2.3 1.6-.7.7-1 1.3-1.6 2.3-.3 1-.7 1.6-.7 2.6s.3 2 .7 2.6c.3 1 1 1.6 1.6 2.3.7.7 1.3 1 2.3 1.6 1 .3 1.6.7 2.6.7 2 0 3.6-.7 4.9-2l2.6 2.3c-1 1-2 1.6-3.3 2.3-1.3.7-2.6.7-3.9.7s-2.9-.3-3.9-1c-1.3-.7-2.3-1.3-3.3-2.3-1-1-1.6-2-2.3-3.3-.7-1.3-1-2.6-1-3.9 0-1.3.3-2.6 1-3.9.7-1.3 1.3-2.3 2.3-3.3 1-1 2-1.6 3.3-2.3 1-1 2.3-1.3 3.6-1.3zM184.6 447.7h17.3v3.6H195v17.3h-3.6v-17.3h-6.8v-3.6zM246.1 461.4v6.8h-3.6v-20.5H253c2 0 3.6.7 4.9 2 1.3 1.3 2 2.9 2 4.9 0 2-.7 3.6-2 4.9-1.3 1.3-2.9 2-4.9 2 0-.1-6.9-.1-6.9-.1zm0-10.4v6.8h6.8c1 0 1.6-.3 2.3-1 .7-.7 1-1.6 1-2.3 0-1-.3-1.6-1-2.6-.7-.7-1.6-1-2.3-1 .1.1-6.8.1-6.8.1zM287.9 468.2l-3.9-6.8h-5.9v6.8h-3.6v-20.5h10.4c2 0 3.6.7 4.9 2 1.3 1.3 2 2.9 2 4.9 0 1.3-.3 2.6-1.3 3.9-.7 1.3-2 2-2.9 2.6l4.2 7.5h-3.9v-.4zm-3-17.2h-6.8v6.8h6.8c1 0 1.6-.3 2.3-1 .7-.7 1-1.6 1-2.6s-.3-1.6-1-2.3c-.3-.6-1.3-.9-2.3-.9zM317.5 447.7c2.9 0 5.2 1 7.2 2.9s2.9 4.6 2.9 7.2c0 2.9-1 5.2-2.9 7.2-2 2-4.6 2.9-7.2 2.9-2.9 0-5.2-1-7.2-2.9-2-2-2.9-4.6-2.9-7.2 0-2.9 1-5.2 2.9-7.2 1.7-1.9 4.3-2.9 7.2-2.9zm0 3.3c-2 0-3.6.7-4.9 2-1.3 1.3-2 2.9-2 4.9 0 2 .7 3.6 2 4.9 1.3 1.3 2.9 2 4.9 2 2 0 3.6-.7 4.9-2 1.3-1.3 2-2.9 2-4.9 0-2-.7-3.6-2-4.9-1.6-1.4-3.3-2-4.9-2zM353.3 447.7c1.3 0 2.9.3 3.9.7 1 .3 2.3 1.3 3.3 2.3l-2.6 2.6c-1.3-1.3-2.9-2-4.9-2-2 0-3.6.7-4.9 2-1.3 1.3-2 2.9-2 4.9 0 2 .7 3.6 2 4.9 1.3 1.3 2.9 2 4.9 2 1 0 2-.3 2.9-.7s1.6-1 2.3-1.6v-2.9H353v-3.6h8.8v7.5c-.3.7-1 1.3-1.6 2-.7.7-1.3 1-2 1.6-.7.3-1.6.7-2.3 1-1 .3-1.6.3-2.6.3-2.9 0-5.2-1-7.2-2.9-2-2-2.9-4.6-2.9-7.2 0-2.9 1-5.2 2.9-7.2 1.7-2.7 4.3-3.7 7.2-3.7zM389.8 468.2l-3.9-6.8H380v6.8h-3.6v-20.5h10.4c2 0 3.6.7 4.9 2 1.3 1.3 2 2.9 2 4.9 0 1.3-.3 2.6-1.3 3.9-.7 1.3-2 2-2.9 2.6l4.2 7.5h-3.9v-.4zm-2.9-17.2h-6.8v6.8h6.8c1 0 1.6-.3 2.3-1 .7-.7 1-1.6 1-2.6s-.3-1.6-1-2.3c-.7-.6-1.3-.9-2.3-.9zM423.7 465h-9.4l-1.6 3.6h-3.9l10.4-20.5 10.4 20.5h-3.9l-2-3.6zm-7.8-3.6h6.2l-2.9-6.2-3.3 6.2zM448.2 455.9v12.4h-3.6v-20.5l10.4 10.4 10.4-10.4v20.5h-3.6v-12.4l-6.8 6.8-6.8-6.8zM484.3 455.9v12.4h-3.6v-20.5l10.4 10.4 10.4-10.4v20.5H498v-12.4l-6.8 6.8-6.9-6.8zM529.9 447.7v3.6h-10.4v5.2h10.4v3.6h-10.4v5.2h10.4v3.6h-13.7v-20.5h13.7v-.7zM558.6 468.2l-3.9-6.8h-5.9v6.8h-3.6v-20.5h10.4c2 0 3.6.7 4.9 2 1.3 1.3 2 2.9 2 4.9 0 1.3-.3 2.6-1.3 3.9-.7 1.3-2 2-2.9 2.6l4.2 7.5h-3.9v-.4zm-2.9-17.2h-6.8v6.8h6.8c1 0 1.6-.3 2.3-1 .7-.7 1-1.6 1-2.6s-.3-1.6-1-2.3c-.7-.6-1.3-.9-2.3-.9zM583.1 459.8c-1.6 0-2.9-.7-4.2-1.6-1.3-1.3-1.6-2.6-1.6-4.2s.7-2.9 1.6-4.2c1.3-1.3 2.6-1.6 4.2-1.6h11.1v3.6h-11.1c-.3 0-.7 0-1 .3-.3 0-.7.3-1 .7s-.3.7-.7 1c0 .3-.3.7-.3 1 0 .7.3 1.3.7 2 .7.7 1 .7 2 .7h5.2c1.6 0 2.9.7 4.2 1.6 1.3 1.3 1.6 2.6 1.6 4.2s-.7 2.9-1.6 4.2c-1.3 1.3-2.6 1.6-4.2 1.6h-11.1v-3.6H588c.3 0 .7 0 1-.3.3 0 .7-.3 1-.7.3-.3.3-.7.7-1 0-.3.3-.7.3-1 0-.7-.3-1.3-.7-2-.7-.7-1-.7-2-.7h-5.2z"/></svg>

<?xml version="1.0" standalone="no"?>
<!DOCTYPE svg PUBLIC "-//W3C//DTD SVG 1.1//EN" "http://www.w3.org/Graphics/SVG/1.1/DTD/svg11.dtd">
<svg width="100%" height="100%" viewBox="0 0 245 33" version="1.1" xmlns="http://www.w3.org/2000/svg" xmlns:xlink="http://www.w3.org/1999/xlink" xml:space="preserve" style="fill-rule:evenodd;clip-rule:evenodd;stroke-linejoin:round;stroke-miterlimit:1.41421;">
    <g transform="matrix(0.328042,0,0,0.328042,17.7714,0.934392)">
        <g transform="matrix(1,0,0,1,94.15,-374.4)">
            <path d="M39.6,434L28.2,414.1L11.2,414.1L11.2,434L1.5,434L1.5,374.4L31.5,374.4C37,374.4 41.6,376.4 45.5,380.3C49.4,384.2 51.4,388.8 51.4,394.3C51.4,398.5 50.1,402.1 47.8,405.7C45.5,409 42.6,411.2 39,412.9L51.4,434.4L39.6,434.4L39.6,434L39.6,434ZM31.1,383.5L11.2,383.5L11.2,403.4L31.1,403.4C33.7,403.4 36,402.4 37.9,400.5C39.9,398.5 40.8,396.3 40.8,393.3C40.8,390.7 39.8,388.4 37.9,386.5C36.3,384.5 34,383.5 31.1,383.5L31.1,383.5ZM105.4,422.9L78,422.9L72.8,433L61.7,433L91.7,373.4L121.3,433L110.2,433L105.4,422.9L105.4,422.9ZM82.9,413.2L100.5,413.2L91.7,395.6L82.9,413.2ZM155.2,373.4C159.4,373.4 163.3,374.1 166.9,375.7C170.5,377.3 173.7,379.3 176.3,382.2L169.1,389.4C165.2,385.5 160.6,383.5 155.1,383.5C149.6,383.5 145,385.5 141.1,389.4C137.2,393.3 135.2,397.9 135.2,403.4C135.2,408.9 137.2,413.5 141.1,417.4C145,421.3 149.9,423.3 155.1,423.3C158,423.3 161,422.6 163.2,421.7C165.5,420.7 168.1,418.8 169.7,416.8L169.7,408.7L154.7,408.7L154.7,398.9L180.1,398.9L180.1,420C178.8,422 177.2,423.9 175.2,425.5C173.2,427.1 171.3,428.4 169.3,429.7C167,431 165.1,431.7 162.5,432.3C159.9,433 157.6,433 155,433C146.9,433 139.7,430.1 133.8,424.2C127.9,418.3 125,411.5 125,403C125,394.9 127.9,387.7 133.8,381.8C140.3,376.3 147.1,373.4 155.2,373.4L155.2,373.4ZM197.6,373.4L237.4,409.2L237.4,373.4L247.5,373.4L247.5,433L207.4,397.2L207.4,433L197.6,433L197.6,373.4L197.6,373.4ZM304.8,422.9L277.4,422.9L272.2,433L261.1,433L291.1,373.4L320.7,433L309.6,433L304.8,422.9ZM282.3,413.2L299.9,413.2L291.1,395.6L282.3,413.2ZM373.2,433L361.8,413.1L344.9,413.1L344.9,433L335.1,433L335.1,373.4L365.1,373.4C370.6,373.4 375.2,375.4 379.1,379.3C383,383.2 385,387.8 385,393.3C385,397.5 383.7,401.1 381.4,404.7C379.1,408 376.2,410.2 372.6,411.9L385,433.4L373.3,433.4L373.3,433L373.2,433ZM364.7,383.5L344.8,383.5L344.8,403.4L364.7,403.4C367.3,403.4 369.6,402.4 371.5,400.5C373.5,398.5 374.4,396.3 374.4,393.3C374.4,390.7 373.4,388.4 371.5,386.5C369.6,384.5 367.4,383.5 364.7,383.5ZM419.2,408.3C414.3,408.3 410.4,406.7 406.8,403.1C403.2,399.5 401.6,395.6 401.6,390.7C401.6,385.8 403.2,381.9 406.8,378.6C410.1,375 414.3,373.4 419.2,373.4L451.5,373.4L451.5,383.5L419.2,383.5C418.2,383.5 417.2,383.8 416.3,384.2C415.3,384.5 414.7,385.2 414,385.8C413.3,386.5 412.7,387.4 412.4,388.1C412.1,388.8 411.7,389.7 411.7,390.7C411.7,392.7 412.4,394.6 414,395.9C415.3,397.5 417.3,398.2 419.2,398.2L434.2,398.2C439.1,398.2 443,399.8 446.6,403.4C450.2,406.7 451.8,410.9 451.8,415.8C451.8,420.7 450.2,424.6 446.6,428.2C443.3,431.5 439.1,433.4 434.2,433.4L401.9,433.4L401.9,423.3L434.2,423.3C435.2,423.3 436.2,423 437.1,422.6C438.1,422.3 438.7,421.6 439.4,421C440.1,420.3 440.7,419.7 441,418.7C441.3,417.7 441.7,416.7 441.7,415.8C441.7,413.8 441,411.9 439.4,410.6C438.1,409 436.1,408.3 434.2,408.3L419.2,408.3ZM495.1,373.4C503.2,373.4 510.4,376.3 516.3,382.2C522.2,388.1 525.1,394.9 525.1,403.4C525.1,411.5 522.2,418.7 516.3,424.6C510.4,430.5 503.6,433.4 495.1,433.4C487,433.4 479.8,430.5 473.9,424.6C468,418.7 465.1,411.9 465.1,403.4C465.1,395.3 468,388.1 473.9,382.2C479.8,376.3 486.9,373.4 495.1,373.4L495.1,373.4ZM495.1,383.5C489.6,383.5 485,385.5 481.1,389.4C477.2,393.3 475.2,397.9 475.2,403.4C475.2,408.9 477.2,413.5 481.1,417.4C485,421.3 489.9,423.3 495.1,423.3C500.6,423.3 505.2,421.3 509.1,417.4C513,413.5 515,408.6 515,403.4C515,398.2 513,393.3 509.1,389.4C505.2,385.5 500.6,383.5 495.1,383.5ZM542.3,373.4L582.1,409.2L582.1,373.4L592.2,373.4L592.2,433L552.1,397.2L552.1,433L542.3,433L542.3,373.4L542.3,373.4Z" style="fill:black;fill-rule:nonzero;"/>
        </g>
        <g transform="matrix(1,0,0,1,94.15,-374.4)">
            <path d="M5.7,461.4L5.7,468.2L2.1,468.2L2.1,447.7L12.5,447.7C14.5,447.7 16.1,448.4 17.4,449.7C18.7,451 19.4,452.6 19.4,454.6C19.4,456.6 18.7,458.2 17.4,459.5C16.1,460.8 14.5,461.5 12.5,461.5C12.5,461.4 5.7,461.4 5.7,461.4L5.7,461.4ZM5.7,451L5.7,457.8L12.5,457.8C13.5,457.8 14.1,457.5 14.8,456.8C15.5,456.1 15.8,455.2 15.8,454.5C15.8,453.5 15.5,452.9 14.8,451.9C14.1,451.2 13.2,450.9 12.5,450.9C12.5,451 5.7,451 5.7,451ZM47.4,447.7L47.4,451.3L37,451.3L37,456.5L47.4,456.5L47.4,460.1L37,460.1L37,465.3L47.4,465.3L47.4,468.9L33.7,468.9L33.7,448.4L47.4,448.4L47.4,447.7L47.4,447.7ZM75.7,468.2L71.8,461.4L66,461.4L66,468.2L62.4,468.2L62.4,447.7L72.8,447.7C74.8,447.7 76.4,448.4 77.7,449.7C79,451 79.7,452.6 79.7,454.6C79.7,455.9 79.4,457.2 78.4,458.5C77.7,459.8 76.4,460.5 75.5,461.1L79.7,468.6L75.8,468.6L75.8,468.2L75.7,468.2ZM72.8,451L66,451L66,457.8L72.8,457.8C73.8,457.8 74.4,457.5 75.1,456.8C75.8,456.1 76.1,455.2 76.1,454.2C76.1,453.2 75.8,452.6 75.1,451.9C74.4,451.3 73.8,451 72.8,451ZM108,447.7L108,451.3L97.6,451.3L97.6,458.1L108,458.1L108,461.7L97.6,461.7L97.6,468.5L94,468.5L94,448L108,448L108,447.7ZM137.6,447.7L137.6,451.3L127.2,451.3L127.2,456.5L137.6,456.5L137.6,460.1L127.2,460.1L127.2,465.3L137.6,465.3L137.6,468.9L124,468.9L124,448.4L137.7,448.4L137.7,447.7L137.6,447.7ZM162.4,447.7C163.7,447.7 165,448 166.3,448.4C167.6,449.1 168.6,449.7 169.6,450.7L167.3,453.3C166,452 164.4,451.3 162.4,451.3C161.4,451.3 160.4,451.6 159.8,452C158.8,452.3 158.2,453 157.5,453.6C156.8,454.3 156.5,454.9 155.9,455.9C155.6,456.9 155.2,457.5 155.2,458.5C155.2,459.5 155.5,460.5 155.9,461.1C156.2,462.1 156.9,462.7 157.5,463.4C158.2,464.1 158.8,464.4 159.8,465C160.8,465.3 161.4,465.7 162.4,465.7C164.4,465.7 166,465 167.3,463.7L169.9,466C168.9,467 167.9,467.6 166.6,468.3C165.3,469 164,469 162.7,469C161.4,469 159.8,468.7 158.8,468C157.5,467.3 156.5,466.7 155.5,465.7C154.5,464.7 153.9,463.7 153.2,462.4C152.5,461.1 152.2,459.8 152.2,458.5C152.2,457.2 152.5,455.9 153.2,454.6C153.9,453.3 154.5,452.3 155.5,451.3C156.5,450.3 157.5,449.7 158.8,449C159.8,448 161.1,447.7 162.4,447.7L162.4,447.7ZM184.6,447.7L201.9,447.7L201.9,451.3L195,451.3L195,468.6L191.4,468.6L191.4,451.3L184.6,451.3L184.6,447.7ZM246.1,461.4L246.1,468.2L242.5,468.2L242.5,447.7L253,447.7C255,447.7 256.6,448.4 257.9,449.7C259.2,451 259.9,452.6 259.9,454.6C259.9,456.6 259.2,458.2 257.9,459.5C256.6,460.8 255,461.5 253,461.5C253,461.4 246.1,461.4 246.1,461.4L246.1,461.4ZM246.1,451L246.1,457.8L252.9,457.8C253.9,457.8 254.5,457.5 255.2,456.8C255.9,456.1 256.2,455.2 256.2,454.5C256.2,453.5 255.9,452.9 255.2,451.9C254.5,451.2 253.6,450.9 252.9,450.9C253,451 246.1,451 246.1,451L246.1,451ZM287.9,468.2L284,461.4L278.1,461.4L278.1,468.2L274.5,468.2L274.5,447.7L284.9,447.7C286.9,447.7 288.5,448.4 289.8,449.7C291.1,451 291.8,452.6 291.8,454.6C291.8,455.9 291.5,457.2 290.5,458.5C289.8,459.8 288.5,460.5 287.6,461.1L291.8,468.6L287.9,468.6L287.9,468.2ZM284.9,451L278.1,451L278.1,457.8L284.9,457.8C285.9,457.8 286.5,457.5 287.2,456.8C287.9,456.1 288.2,455.2 288.2,454.2C288.2,453.2 287.9,452.6 287.2,451.9C286.9,451.3 285.9,451 284.9,451ZM317.5,447.7C320.4,447.7 322.7,448.7 324.7,450.6C326.7,452.5 327.6,455.2 327.6,457.8C327.6,460.7 326.6,463 324.7,465C322.7,467 320.1,467.9 317.5,467.9C314.6,467.9 312.3,466.9 310.3,465C308.3,463 307.4,460.4 307.4,457.8C307.4,454.9 308.4,452.6 310.3,450.6C312,448.7 314.6,447.7 317.5,447.7ZM317.5,451C315.5,451 313.9,451.7 312.6,453C311.3,454.3 310.6,455.9 310.6,457.9C310.6,459.9 311.3,461.5 312.6,462.8C313.9,464.1 315.5,464.8 317.5,464.8C319.5,464.8 321.1,464.1 322.4,462.8C323.7,461.5 324.4,459.9 324.4,457.9C324.4,455.9 323.7,454.3 322.4,453C320.8,451.6 319.1,451 317.5,451ZM353.3,447.7C354.6,447.7 356.2,448 357.2,448.4C358.2,448.7 359.5,449.7 360.5,450.7L357.9,453.3C356.6,452 355,451.3 353,451.3C351,451.3 349.4,452 348.1,453.3C346.8,454.6 346.1,456.2 346.1,458.2C346.1,460.2 346.8,461.8 348.1,463.1C349.4,464.4 351,465.1 353,465.1C354,465.1 355,464.8 355.9,464.4C356.8,464 357.5,463.4 358.2,462.8L358.2,459.9L353,459.9L353,456.3L361.8,456.3L361.8,463.8C361.5,464.5 360.8,465.1 360.2,465.8C359.5,466.5 358.9,466.8 358.2,467.4C357.5,467.7 356.6,468.1 355.9,468.4C354.9,468.7 354.3,468.7 353.3,468.7C350.4,468.7 348.1,467.7 346.1,465.8C344.1,463.8 343.2,461.2 343.2,458.6C343.2,455.7 344.2,453.4 346.1,451.4C347.8,448.7 350.4,447.7 353.3,447.7L353.3,447.7ZM389.8,468.2L385.9,461.4L380,461.4L380,468.2L376.4,468.2L376.4,447.7L386.8,447.7C388.8,447.7 390.4,448.4 391.7,449.7C393,451 393.7,452.6 393.7,454.6C393.7,455.9 393.4,457.2 392.4,458.5C391.7,459.8 390.4,460.5 389.5,461.1L393.7,468.6L389.8,468.6L389.8,468.2L389.8,468.2ZM386.9,451L380.1,451L380.1,457.8L386.9,457.8C387.9,457.8 388.5,457.5 389.2,456.8C389.9,456.1 390.2,455.2 390.2,454.2C390.2,453.2 389.9,452.6 389.2,451.9C388.5,451.3 387.9,451 386.9,451ZM423.7,465L414.3,465L412.7,468.6L408.8,468.6L419.2,448.1L429.6,468.6L425.7,468.6L423.7,465ZM415.9,461.4L422.1,461.4L419.2,455.2L415.9,461.4ZM448.2,455.9L448.2,468.3L444.6,468.3L444.6,447.8L455,458.2L465.4,447.8L465.4,468.3L461.8,468.3L461.8,455.9L455,462.7L448.2,455.9L448.2,455.9ZM484.3,455.9L484.3,468.3L480.7,468.3L480.7,447.8L491.1,458.2L501.5,447.8L501.5,468.3L498,468.3L498,455.9L491.2,462.7L484.3,455.9ZM529.9,447.7L529.9,451.3L519.5,451.3L519.5,456.5L529.9,456.5L529.9,460.1L519.5,460.1L519.5,465.3L529.9,465.3L529.9,468.9L516.2,468.9L516.2,448.4L529.9,448.4L529.9,447.7L529.9,447.7ZM558.6,468.2L554.7,461.4L548.8,461.4L548.8,468.2L545.2,468.2L545.2,447.7L555.6,447.7C557.6,447.7 559.2,448.4 560.5,449.7C561.8,451 562.5,452.6 562.5,454.6C562.5,455.9 562.2,457.2 561.2,458.5C560.5,459.8 559.2,460.5 558.3,461.1L562.5,468.6L558.6,468.6L558.6,468.2L558.6,468.2ZM555.7,451L548.9,451L548.9,457.8L555.7,457.8C556.7,457.8 557.3,457.5 558,456.8C558.7,456.1 559,455.2 559,454.2C559,453.2 558.7,452.6 558,451.9C557.3,451.3 556.7,451 555.7,451ZM583.1,459.8C581.5,459.8 580.2,459.1 578.9,458.2C577.6,456.9 577.3,455.6 577.3,454C577.3,452.4 578,451.1 578.9,449.8C580.2,448.5 581.5,448.2 583.1,448.2L594.2,448.2L594.2,451.8L583.1,451.8C582.8,451.8 582.4,451.8 582.1,452.1C581.8,452.1 581.4,452.4 581.1,452.8C580.8,453.2 580.8,453.5 580.4,453.8C580.4,454.1 580.1,454.5 580.1,454.8C580.1,455.5 580.4,456.1 580.8,456.8C581.5,457.5 581.8,457.5 582.8,457.5L588,457.5C589.6,457.5 590.9,458.2 592.2,459.1C593.5,460.4 593.8,461.7 593.8,463.3C593.8,464.9 593.1,466.2 592.2,467.5C590.9,468.8 589.6,469.1 588,469.1L576.9,469.1L576.9,465.5L588,465.5C588.3,465.5 588.7,465.5 589,465.2C589.3,465.2 589.7,464.9 590,464.5C590.3,464.2 590.3,463.8 590.7,463.5C590.7,463.2 591,462.8 591,462.5C591,461.8 590.7,461.2 590.3,460.5C589.6,459.8 589.3,459.8 588.3,459.8L583.1,459.8L583.1,459.8Z" style="fill:black;fill-rule:nonzero;"/>
        </g>
    </g>
    <g transform="matrix(0.0778818,0,0,0.0778818,-34.1627,-227.387)">
        <g>
            <g>
                <path d="M710.617,3329.8L454.644,3050.52L454.649,3050.41L585.034,2932.17L826.053,2932.17L956.204,3050.19L713.017,3329.77C712.217,3329.78 711.417,3329.79 710.617,3329.8ZM711.233,3284.85L811.564,3169.51L604.471,3168.37L711.233,3284.85ZM610.772,3138.83L837.165,3140.08L913.131,3052.74L814.158,2962.99L618.07,2962.99L684.876,3036.15L700.286,3052.04L610.772,3138.83ZM573.067,3134.1L658.526,3051.25L586.538,2972.41L498.25,3052.48L573.067,3134.1Z" style="fill:rgb(247,47,94);"/>
            </g>
        </g>
    </g>
</svg>
